build/location/GPSOutline.svg

<svg xmlns="http://www.w3.org/2000/svg" fill="none" viewBox="0 0 24 24" focusable="false"><path d="M0 0H24V24H0z"/><path fill="#74767B" fill-rule="evenodd" d="M18.5979 5.334C18.5952 5.33426 18.5885 5.33525 18.5771 5.34021L5.40468 11.0967C5.38993 11.1031 5.38386 11.1085 5.38229 11.1099C5.38056 11.1116 5.37897 11.1142 5.37897 11.1142C5.3769 11.1182 5.37267 11.1305 5.37511 11.1492C5.37754 11.1679 5.38475 11.1787 5.38777 11.182C5.38777 11.182 5.39 11.1841 5.39209 11.1852C5.39397 11.1863 5.40121 11.1899 5.41711 11.1923L10.6585 11.9861C11.3723 12.0942 11.9327 12.6582 12.0401 13.3767L12.8287 18.6525C12.8311 18.6685 12.8347 18.6758 12.8357 18.6777C12.8368 18.6798 12.839 18.682 12.839 18.682C12.8423 18.685 12.8529 18.6923 12.8715 18.6947C12.8901 18.6972 12.9023 18.6929 12.9063 18.6909C12.9063 18.6909 12.9089 18.6893 12.9105 18.6875C12.912 18.6859 12.9173 18.6798 12.9237 18.665L18.6427 5.4062C18.6476 5.39478 18.6486 5.38798 18.6489 5.38527C18.6491 5.38235 18.649 5.38005 18.6484 5.37764C18.6472 5.37211 18.643 5.36158 18.6322 5.35075C18.6215 5.33992 18.611 5.33562 18.6055 5.33442C18.6031 5.33389 18.6008 5.33372 18.5979 5.334ZM18.0611 4.14386C19.181 3.65447 20.3174 4.79841 19.8312 5.92561L14.1123 19.1844C13.574 20.4324 11.7485 20.1919 11.5474 18.8465L10.7588 13.5708C10.736 13.4184 10.6171 13.2987 10.4657 13.2758L5.22431 12.482C3.88771 12.2796 3.64881 10.4421 4.88865 9.90031L18.0611 4.14386Z"/></svg>

<svg xmlns="http://www.w3.org/2000/svg" fill="none" viewBox="0 0 24 24" focusable="false"><path fill="#74767B" fill-rule="evenodd" d="M18.59 5.33s-.01 0-.02.01L5.4 11.09l-.02.01c0 .01-.01.01-.01.01v.03c0 .02.01.03.01.04h.01s.01 0 .02.01l5.24.79c.72.11 1.28.67 1.39 1.39l.78 5.28c.01.01.01.02.01.02v.01c.01 0 .02.01.04.01h.03s0-.01.01-.01c0 0 0-.01.01-.02L18.64 5.4v-.03s0-.01-.01-.02c-.01-.02-.02-.02-.03-.02zm-.53-1.19c1.12-.49 2.25.65 1.77 1.78l-5.72 13.26c-.54 1.25-2.37 1.01-2.57-.34l-.79-5.27a.34.34 0 0 0-.29-.3l-5.24-.79c-1.34-.21-1.58-2.04-.34-2.58z"/></svg>
